logos/acq4.svg

<?xml version="1.0" encoding="UTF-8"?>
<!DOCTYPE svg PUBLIC "-//W3C//DTD SVG 1.1//EN" "http://www.w3.org/Graphics/SVG/1.1/DTD/svg11.dtd">
<svg xmlns="http://www.w3.org/2000/svg" version="1.1" width="200px" height="200px" style="shape-rendering:geometricPrecision; text-rendering:geometricPrecision; image-rendering:optimizeQuality; fill-rule:evenodd; clip-rule:evenodd" xmlns:xlink="http://www.w3.org/1999/xlink">
<g><path style="opacity:0.969" fill="#040409" d="M 34.5,-0.5 C 77.8333,-0.5 121.167,-0.5 164.5,-0.5C 183.167,4.16667 194.833,15.8333 199.5,34.5C 199.5,77.8333 199.5,121.167 199.5,164.5C 194.833,183.167 183.167,194.833 164.5,199.5C 121.167,199.5 77.8333,199.5 34.5,199.5C 15.8333,194.833 4.16667,183.167 -0.5,164.5C -0.5,121.167 -0.5,77.8333 -0.5,34.5C 4.16667,15.8333 15.8333,4.16667 34.5,-0.5 Z"/></g>
<g><path style="opacity:0.588" fill="#5e5efd" d="M 36.5,5.5 C 78.5013,5.33334 120.501,5.50001 162.5,6C 179.333,9.5 189.5,19.6667 193,36.5C 193.667,78.5 193.667,120.5 193,162.5C 189.5,179.333 179.333,189.5 162.5,193C 120.5,193.667 78.5,193.667 36.5,193C 19.6667,189.5 9.5,179.333 6,162.5C 5.33333,120.5 5.33333,78.5 6,36.5C 9.68073,19.6534 19.8474,9.32007 36.5,5.5 Z"/></g>
<g><path style="opacity:1" fill="#040309" d="M 41.5,16.5 C 43.5,16.5 45.5,16.5 47.5,16.5C 53.1659,32.8328 59.6659,48.8328 67,64.5C 68.6995,65.4061 70.5328,65.7394 72.5,65.5C 72.5,66.8333 72.5,68.1667 72.5,69.5C 63.8333,69.5 55.1667,69.5 46.5,69.5C 46.5,68.1667 46.5,66.8333 46.5,65.5C 48.1667,65.5 49.8333,65.5 51.5,65.5C 52.4334,56.3337 48.4334,52.667 39.5,54.5C 30.1624,52.3326 26.9957,55.6659 30,64.5C 31.6995,65.4061 33.5328,65.7394 35.5,65.5C 35.5,66.8333 35.5,68.1667 35.5,69.5C 28.8333,69.5 22.1667,69.5 15.5,69.5C 15.5,68.1667 15.5,66.8333 15.5,65.5C 18.2626,65.2562 20.4293,63.9229 22,61.5C 28.4687,46.5549 34.9687,31.5549 41.5,16.5 Z"/></g>
<g><path style="opacity:1" fill="#04030a" d="M 93.5,17.5 C 100.468,16.8037 107.134,17.8037 113.5,20.5C 115.246,18.1459 117.579,17.1459 120.5,17.5C 120.612,24.1802 120.946,30.8469 121.5,37.5C 119.833,37.5 118.167,37.5 116.5,37.5C 114.547,24.3669 107.213,19.5336 94.5,23C 90.8148,26.6981 88.6481,31.1981 88,36.5C 87.0404,44.7427 88.0404,52.7427 91,60.5C 98.5598,68.3556 106.226,68.3556 114,60.5C 115.766,58.1187 116.932,55.452 117.5,52.5C 119.045,51.5481 120.712,51.2148 122.5,51.5C 120.787,61.5041 115.12,67.6708 105.5,70C 89.0293,73.0194 78.5293,66.5194 74,50.5C 71.8449,34.1148 78.3449,23.1148 93.5,17.5 Z"/></g>
<g><path style="opacity:1" fill="#030207" d="M 148.5,17.5 C 172.528,15.6959 183.695,26.6959 182,50.5C 180.141,57.3614 176.308,62.8614 170.5,67C 171.928,69.7832 173.262,72.6165 174.5,75.5C 178.44,77.2361 180.107,75.9028 179.5,71.5C 180.833,71.5 182.167,71.5 183.5,71.5C 183.338,79.3279 179.338,82.9946 171.5,82.5C 163.589,82.5895 159.589,78.5895 159.5,70.5C 134.847,69.6026 125.347,56.9359 131,32.5C 134.92,25.0663 140.754,20.0663 148.5,17.5 Z"/></g>
<g><path style="opacity:0.588" fill="#5c5cf7" d="M 151.5,21.5 C 157.801,20.3137 162.634,22.3137 166,27.5C 167.557,32.8937 168.39,38.3937 168.5,44C 168.691,47.7086 168.025,51.2086 166.5,54.5C 161.214,49.59 155.214,48.4233 148.5,51C 146.951,52.214 145.785,53.714 145,55.5C 144.667,55.1667 144.333,54.8333 144,54.5C 143.333,47.1667 143.333,39.8333 144,32.5C 145.056,27.6821 147.556,24.0155 151.5,21.5 Z"/></g>
<g><path style="opacity:0.588" fill="#5757ea" d="M 39.5,32.5 C 41.8094,37.7322 44.1427,43.0655 46.5,48.5C 41.8333,49.8333 37.1667,49.8333 32.5,48.5C 35.2279,43.308 37.5613,37.9747 39.5,32.5 Z"/></g>
<g><path style="opacity:0.588" fill="#5a5af2" d="M 151.5,53.5 C 155.683,52.8456 158.516,54.5123 160,58.5C 160.769,61.0991 160.602,63.5991 159.5,66C 151.242,68.7181 147.409,65.8847 148,57.5C 148.69,55.6498 149.856,54.3164 151.5,53.5 Z"/></g>
<g><path style="opacity:0.753" fill="#2e2e7d" d="M 139.5,74.5 C 140.498,98.3275 140.831,122.328 140.5,146.5C 144.371,146.185 148.038,146.518 151.5,147.5C 147.5,147.5 143.5,147.5 139.5,147.5C 139.5,123.167 139.5,98.8333 139.5,74.5 Z"/></g>
<g><path style="opacity:1" fill="#1b1a1e" d="M 139.5,74.5 C 139.5,98.8333 139.5,123.167 139.5,147.5C 143.5,147.5 147.5,147.5 151.5,147.5C 151.5,154.167 151.5,160.833 151.5,167.5C 147.833,167.5 144.167,167.5 140.5,167.5C 139.51,173.645 139.177,179.978 139.5,186.5C 124.5,186.5 109.5,186.5 94.5,186.5C 94.8235,179.978 94.4902,173.645 93.5,167.5C 76.1667,167.5 58.8333,167.5 41.5,167.5C 41.3337,160.825 41.5004,154.158 42,147.5C 48.9659,133.853 55.9659,120.186 63,106.5C 63.7083,105.619 64.5416,104.953 65.5,104.5C 66.3668,101.092 67.5335,97.7584 69,94.5C 72.9932,88.5202 76.4932,82.1869 79.5,75.5C 99.4889,74.5004 119.489,74.167 139.5,74.5 Z"/></g>
<g><path style="opacity:1" fill="#e6e8f6" d="M 150.5,165.5 C 146.167,165.5 141.833,165.5 137.5,165.5C 137.5,172.167 137.5,178.833 137.5,185.5C 123.5,185.5 109.5,185.5 95.5,185.5C 95.5,178.833 95.5,172.167 95.5,165.5C 78.1667,165.5 60.8333,165.5 43.5,165.5C 43.3338,159.158 43.5005,152.825 44,146.5C 51.4841,132.529 58.6507,118.529 65.5,104.5C 70.9802,95.5464 75.9802,86.2131 80.5,76.5C 99.4883,75.5004 118.488,75.1671 137.5,75.5C 137.5,99.8333 137.5,124.167 137.5,148.5C 141.833,148.5 146.167,148.5 150.5,148.5C 150.5,154.167 150.5,159.833 150.5,165.5 Z"/></g>
<g><path style="opacity:1" fill="#141418" d="M 90.5,111.5 C 90.9731,107.548 92.3064,103.881 94.5,100.5C 95.4994,116.486 95.8328,132.486 95.5,148.5C 88.4921,148.666 81.4921,148.5 74.5,148C 79.4646,135.59 84.7979,123.423 90.5,111.5 Z"/></g>
<g><path style="opacity:0.588" fill="#5d5dfa" d="M 92.5,108.5 C 93.4954,120.989 93.8287,133.656 93.5,146.5C 87.9738,146.821 82.6405,146.488 77.5,145.5C 82.2457,134.254 86.579,122.921 90.5,111.5C 91.4013,110.71 92.0679,109.71 92.5,108.5 Z"/></g>
<g><path style="opacity:0.765" fill="#35358e" d="M 77.5,145.5 C 82.6405,146.488 87.9738,146.821 93.5,146.5C 93.8287,133.656 93.4954,120.989 92.5,108.5C 92.9867,107.527 93.4867,106.527 94,105.5C 94.4999,119.496 94.6666,133.496 94.5,147.5C 88.4632,147.829 82.4632,147.496 76.5,146.5C 76.6236,145.893 76.9569,145.56 77.5,145.5 Z"/></g>
<g><path style="opacity:1" fill="#5d5d64" d="M 150.5,165.5 C 146.702,166.483 142.702,166.817 138.5,166.5C 138.823,173.022 138.49,179.355 137.5,185.5C 137.5,178.833 137.5,172.167 137.5,165.5C 141.833,165.5 146.167,165.5 150.5,165.5 Z"/></g>
<g><path style="opacity:0.8" fill="#2e2e7d" d="M 93.5,167.5 C 94.4902,173.645 94.8235,179.978 94.5,186.5C 109.5,186.5 124.5,186.5 139.5,186.5C 139.177,179.978 139.51,173.645 140.5,167.5C 140.5,174.167 140.5,180.833 140.5,187.5C 124.833,187.5 109.167,187.5 93.5,187.5C 93.5,180.833 93.5,174.167 93.5,167.5 Z"/></g>
</svg>

<svg xmlns="http://www.w3.org/2000/svg" width="200" height="200" style="shape-rendering:geometricPrecision;text-rendering:geometricPrecision;image-rendering:optimizeQuality;fill-rule:evenodd;clip-rule:evenodd"><path style="opacity:.969" fill="#040409" d="M34.5-.5h130c18.667 4.667 30.333 16.333 35 35v130c-4.667 18.667-16.333 30.333-35 35h-130c-18.667-4.667-30.333-16.333-35-35v-130c4.667-18.667 16.333-30.333 35-35z"/><path style="opacity:.588" fill="#5e5efd" d="M36.5 5.5c42.001-.167 84.001 0 126 .5 16.833 3.5 27 13.667 30.5 30.5.667 42 .667 84 0 126-3.5 16.833-13.667 27-30.5 30.5-42 .667-84 .667-126 0-16.833-3.5-27-13.667-30.5-30.5-.667-42-.667-84 0-126 3.68-16.847 13.847-27.18 30.5-31z"/><path style="opacity:1" fill="#040309" d="M41.5 16.5h6a498.514 498.514 0 0 0 19.5 48c1.7.906 3.533 1.24 5.5 1v4h-26v-4h5c.933-9.166-3.067-12.833-12-11-9.338-2.167-12.504 1.166-9.5 10 1.7.906 3.533 1.24 5.5 1v4h-20v-4c2.763-.244 4.93-1.577 6.5-4a58174.82 58174.82 0 0 1 19.5-45z"/><path style="opacity:1" fill="#04030a" d="M93.5 17.5c6.968-.696 13.634.304 20 3 1.746-2.354 4.079-3.354 7-3 .112 6.68.446 13.347 1 20h-5c-1.953-13.133-9.287-17.966-22-14.5-3.685 3.698-5.852 8.198-6.5 13.5-.96 8.243.04 16.243 3 24 7.56 7.856 15.226 7.856 23 0 1.766-2.381 2.932-5.048 3.5-8 1.545-.952 3.212-1.285 5-1-1.713 10.004-7.38 16.17-17 18.5-16.47 3.02-26.97-3.48-31.5-19.5-2.155-16.385 4.345-27.385 19.5-33z"/><path style="opacity:1" fill="#030207" d="M148.5 17.5c24.028-1.804 35.195 9.196 33.5 33-1.859 6.861-5.692 12.361-11.5 16.5a137.102 137.102 0 0 1 4 8.5c3.94 1.736 5.607.403 5-4h4c-.162 7.828-4.162 11.495-12 11-7.911.09-11.911-3.91-12-12-24.653-.897-34.153-13.564-28.5-38 3.92-7.434 9.754-12.434 17.5-15z"/><path style="opacity:.588" fill="#5c5cf7" d="M151.5 21.5c6.301-1.186 11.134.814 14.5 6a63.75 63.75 0 0 1 2.5 16.5c.191 3.709-.475 7.209-2 10.5-5.286-4.91-11.286-6.077-18-3.5a11.532 11.532 0 0 0-3.5 4.5l-1-1a121.19 121.19 0 0 1 0-22c1.056-4.818 3.556-8.485 7.5-11z"/><path style="opacity:.588" fill="#5757ea" d="M39.5 32.5c2.31 5.232 4.643 10.566 7 16-4.667 1.333-9.333 1.333-14 0a121.717 121.717 0 0 0 7-16z"/><path style="opacity:.588" fill="#5a5af2" d="M151.5 53.5c4.183-.654 7.016 1.012 8.5 5 .769 2.6.602 5.1-.5 7.5-8.258 2.718-12.091-.115-11.5-8.5.69-1.85 1.856-3.184 3.5-4z"/><path style="opacity:.753" fill="#2e2e7d" d="M139.5 74.5a1296.171 1296.171 0 0 1 1 72c3.871-.315 7.538.018 11 1h-12v-73z"/><path style="opacity:1" fill="#1b1a1e" d="M139.5 74.5v73h12v20h-11c-.99 6.145-1.323 12.478-1 19h-45c.323-6.522-.01-12.855-1-19h-52c-.166-6.675 0-13.342.5-20a16479.572 16479.572 0 0 1 21-41c.708-.881 1.542-1.547 2.5-2a60.91 60.91 0 0 1 3.5-10 130.544 130.544 0 0 0 10.5-19c19.989-1 39.989-1.333 60-1z"/><path style="opacity:1" fill="#e6e8f6" d="M150.5 165.5h-13v20h-42v-20h-52c-.166-6.342 0-12.675.5-19a1254.682 1254.682 0 0 0 21.5-42 279.281 279.281 0 0 0 15-28 813.13 813.13 0 0 1 57-1v73h13v17z"/><path style="opacity:1" fill="#141418" d="M90.5 111.5c.473-3.952 1.806-7.619 4-11 1 15.986 1.333 31.986 1 48-7.008.166-14.008 0-21-.5a608.004 608.004 0 0 1 16-36.5z"/><path style="opacity:.588" fill="#5d5dfa" d="M92.5 108.5a361.581 361.581 0 0 1 1 38c-5.526.321-10.86-.012-16-1a530.484 530.484 0 0 0 13-34c.901-.79 1.568-1.79 2-3z"/><path style="opacity:.765" fill="#35358e" d="M77.5 145.5c5.14.988 10.474 1.321 16 1a361.581 361.581 0 0 0-1-38l1.5-3c.5 13.996.667 27.996.5 42a81.884 81.884 0 0 1-18-1c.124-.607.457-.94 1-1z"/><path style="opacity:1" fill="#5d5d64" d="M150.5 165.5c-3.798.983-7.798 1.317-12 1 .323 6.522-.01 12.855-1 19v-20h13z"/><path style="opacity:.8" fill="#2e2e7d" d="M93.5 167.5c.99 6.145 1.323 12.478 1 19h45c-.323-6.522.01-12.855 1-19v20h-47v-20z"/></svg>
